X:1533
T:Rakish Paddy
R:reel
N:"collected from Delaney"
B:"O'Neill's Dance Music of Ireland, 1533"
Z:Most of the c's are usually played as c naturals these days.
T: paidin an racaire.
Z:transcribed by John B. Walsh, walsh@math.ubc.ca 8/23/96
M:C|
L:1/8
K:D
T(cBc).d cBAB|cAGF EFGc|Ad{e}dc defe|dcAG FGAB|
cedB cBAB|cAGF EDCE|DEFG ABce|dcAG FD D2||
eg"~"g2 agfg|efgf ec "~"c2|ea "#~"a2 b^gag|eaag ((3efg) dg|
eg "~"g2 agfg|efge defg|afge fdec|dcAG FD D2||


